src/assets/img/Home/icons/plusicon.svg

<svg width="22" height="21" viewBox="0 0 22 21" fill="none" xmlns="http://www.w3.org/2000/svg">
<g id="Icon">
<path id="Vector (Stroke)" fill-rule="evenodd" clip-rule="evenodd" d="M10.7036 4.60156C11.0627 4.60156 11.3538 4.8927 11.3538 5.25184V9.80378H15.9058C16.2649 9.80378 16.5561 10.0949 16.5561 10.4541C16.5561 10.8132 16.2649 11.1043 15.9058 11.1043H11.3538V15.6563C11.3538 16.0154 11.0627 16.3066 10.7036 16.3066C10.3444 16.3066 10.0533 16.0154 10.0533 15.6563V11.1043H5.50135C5.14221 11.1043 4.85107 10.8132 4.85107 10.4541C4.85107 10.0949 5.14221 9.80378 5.50135 9.80378L10.0533 9.80378V5.25184C10.0533 4.8927 10.3444 4.60156 10.7036 4.60156Z" fill="#1A1A1A"/>
</g>
</svg>

<svg xmlns="http://www.w3.org/2000/svg" width="22" height="21" fill="none"><path fill="#1A1A1A" fill-rule="evenodd" d="M10.704 4.602c.359 0 .65.29.65.65v4.552h4.552a.65.65 0 0 1 0 1.3h-4.552v4.552a.65.65 0 1 1-1.3 0v-4.552H5.5a.65.65 0 1 1 0-1.3h4.552V5.252c0-.36.291-.65.65-.65Z" clip-rule="evenodd"/></svg>
